!!!!SEGMENT: pl-kk--kk-i-38--017_lasso-orlando-di--beati-omnes-qui-timent-dominum.krn
!!!cenid: 16xx:1267
!!!COM: Lasso, Orlando di
!!!COM-rismid: pe506
!!!CDT: ~1532-1594/06/14
!!!CNT: French-Flemish
!!!OTL: Beati omnes qui timent Dominum
!!!PDT:
!!!AGN: Sacred
!!!SMS-siglum: PL-Kk
!!!SMS-shelfmark: Kk.I.38
!!!SMS-shelfwork: 017 W
!!!SMS-variant:
!!!SMS-altvar:
!!!NIFC-rismid: 1001154413
!!!URL-scan: http://repozytorium.nifc.pl/skany/pl-kk-nut--i-38
!!!ONB-nifc: Lib. 3. Fol. 3. 2da parte (jeśli występuje), należy do utworu tytułowego, skan 0011
!!!key:
**kern	**text
*Iempty	*
*I"Baſso Ripieno.	*
*clefF3	*
*k[b-]	*
*B-:	*
*M2/1	*
*met(C|)	*
=1-	=1-
!LO:TX:t=P:problem=kreska pseudotaktowa	!
!LO:TX:a:i:t=Lib. 3. Fol. 3.	!
!LO:TX:t=P:problem=w źródle znaki przykluczowe BB- pod B-, zapisane jeden nad drugim	!
1r	.
0G	Be-
=2-	=2-
1E-X	-a-
=3-	=3-
!LO:TX:t=P:problem=kreska pseudotaktowa	!
0BB-	-ti
=4-	=4-
0F	o-
=5-	=5-
2C,</	-mnes
2C/	qui
1G	ti-
=6-	=6-
!LO:TX:t=P:problem=kreska pseudotaktowa	!
1F	-ment
0D	D(o-
=7-	=7-
2.C/	-mi)-
4C/	-num,
=8-	=8-
1BB-,<	.
2rBB	.
!LO:TX:t=P:problem=kreska pseudotaktowa	!
2BB-/	qui
=9-	=9-
1.B-	ti-
*2\right	*
!LO:TX:t=P:problem=2\right&colon; global	!
2A\	-ment
=10-	=10-
2.G\	Do-
4F\	.
2E-X/	.
2E-/	-mi-
=11-	=11-
!LO:TX:t=P:problem=kreska pseudotaktowa	!
1D	-num.
0r	.
=12-	=12-
!LO:TX:t=P:problem=kreska pseudotaktowa	!
1r	.
=13-	=13-
2r	.
2F/	qui
2D/	am-
!LO:TX:t=P:problem=kreska pseudotaktowa	!
2BB-/	-bu-
=14-	=14-
2F,</	-lant
2F/	in
2E-X/	vi-
!LO:TX:t=P:problem=kreska pseudotaktowa	!
2BB-/	-js
!LO:LB:g=original	!
=15-	=15-
2.B-X\	E-
4A\	.
1.G	.
=16-	=16-
!LO:TX:t=P:problem=kreska pseudotaktowa	!
2D/	-jus.
00r	.
=17-	=17-
.	.
=18-	=18-
1BB-	qui
=19-	=19-
2D/	am-
2F/	-bu-
2C,</	-lant
!LO:TX:t=P:problem=kreska pseudotaktowa	!
2C/	in
=20-	=20-
2G\	vi-
2B-\	-js
2.BB-/	e-
4C/	.
=21-	=21-
1D	.
!LO:TX:t=P:problem=kreska pseudotaktowa	!
0G	-jus.
=22-	=22-
00r	.
=23-	=23-
.	.
=24-	=24-
0r	.
=25-	=25-
!LO:TX:t=P:problem=kreska pseudotaktowa	!
1r	.
=26-	=26-
1D	La-
2D/	-bo-
2D/	-res
=27-	=27-
1d	ma-
2B-\	-nu-
2.d\	-um
=28-	=28-
4c\|	.
(>4B-\	.
4A\)	.
2G,>\	.
2G\	Tu-
=29-	=29-
1E-X	-a-
!LO:TX:t=P:problem=kreska pseudotaktowa	!
1BB-,<	-rum
=30-	=30-
00r	.
=31-	=31-
.	.
=32-	=32-
!LO:TX:t=P:problem=kreska pseudotaktowa	!
0rF	.
=33-	=33-
1D	La-
2D/	-bo-
!LO:TX:t=P:problem=kreska pseudotaktowa	!
2D/	-res
=34-	=34-
2.B-\	ma-
4A\	.
2G\	.
!LO:TX:t=P:problem=kreska pseudotaktowa	!
2F#X\	-nu-
!LO:LB:g=original	!
=35-	=35-
2G\	-um
2E-X/	tu-
1D	-a-
=36-	=36-
2D,</	-rum
1G	qui-
!LO:TX:t=P:problem=kreska pseudotaktowa	!
2D/	-a
=37-	=37-
2BB-/	man-
2BB-/	-du-
1D	-ca-
=38-	=38-
!LO:TX:t=P:problem=kreska pseudotaktowa	!
0AA	-bis
=39-	=39-
0r	.
=40-	=40-
0BB-	be-
=41-	=41-
1.E-X	-a-
2C/	-tus
=42-	=42-
!LO:TX:t=P:problem=kreska pseudotaktowa	!
1D	es!
!LO:TX:t=P:problem=kreska pseudotaktowa	!
00r	.
=43-	=43-
.	.
=44-	=44-
1G	et
=45-	=45-
2E-X/	be-
!LO:TX:t=P:problem=kreska pseudotaktowa	!
2BB-/	-ne
2F\ny	ti-
2G\	-bi
=46-	=46-
1C	e-
!LO:TX:t=P:problem=kreska pseudotaktowa	!
1D	-rit.
=47-	=47-
1r	.
1D	U-
=48-	=48-
!LO:TX:t=P:problem=kreska pseudotaktowa	!
1E-X,<	-xor
1D	tu-
=49-	=49-
!LO:TX:t=P:problem=kreska pseudotaktowa	!
1C	-a
2rD	.
2BB-/	si-
=50-	=50-
1F	-cut
2D/	vi-
*custos:BB-	*
!LO:TX:t=P:problem=kreska pseudotaktowa	!
2E-X,</	-tis
!LO:LB:g=original	!
=51-	=51-
2BB-/	a-
2.B-\	-bun-
4A\	.
4G\	.
4F\	.
=52-	=52-
4E-X/	.
4D/	.
2C/	.
1G	.
=53-	=53-
!LO:TX:t=P:problem=kreska pseudotaktowa	!
1C	-dans
00r	.
=54-	=54-
.	.
=55-	=55-
!LO:TX:t=P:problem=kreska pseudotaktowa	!
1r	.
=56-	=56-
2r	.
1d	in
!LO:TX:t=P:problem=kreska pseudotaktowa	!
2d\	la-
=57-	=57-
2.c\	-te-
4B-\	-ri-
2A\	-bus
1B-\	do-
=58-	=58-
!LO:TX:t=P:problem=kreska pseudotaktowa	!
2G\	-m(us)
1c	tu-
=59-	=59-
!LO:TX:t=P:problem=kreska pseudotaktowa	!
1F	-ae
1r	.
=60-	=60-
!LO:TX:t=P:problem=kreska pseudotaktowa	!
0r	.
=61-	=61-
2r	.
1d	in
2d\	la-
=62-	=62-
2.c\	-te-
4B-\	-ri-
2A,>\	-b(us)
2F/	do-
=63-	=63-
!LO:TX:t=P:problem=kreska pseudotaktowa	!
1G	-m(us)
1C	tu-
=64-	=64-
2.D/	.
4E/ny	.
1F	-ae
=65-	=65-
!LO:TX:t=P:problem=kreska pseudotaktowa	!
1BB-,<	.
00r	.
=66-	=66-
.	.
=67-	=67-
00r	.
=68-	=68-
.	.
=69-	=69-
00rc	.
=70-	=70-
.	.
=71-	=71-
1C	in
=72-	=72-
2F/	cir-
1BB-	-cu-
2BB-/	-i-
=73-	=73-
!LO:TX:t=P:problem=kreska pseudotaktowa	!
1BB-	-tu
!LO:TX:t=P:problem=♭ above	!
0E-X	men-
=74-	=74-
1C	-ſae
=75-	=75-
0G	tu-
=76-	=76-
!LO:TX:t=P:problem=podwójna kreska pseudotaktowa	!
0D;>	-ae
=77||-	=77||-
*k[b-]	*
*M2/1	*
*met(C|)	*
!LO:TX:a:i:t=2da \nparte	!
!LO:TX:t=P:problem=w źródle znaki przykluczowe BB- pod B-, zapisane jeden nad drugim	!
!LO:TX:t=P:problem=kreska pseudotaktowa	!
00r	.
=78-	=78-
.	.
=79-	=79-
0.D	Ec-
=80-	=80-
!LO:TX:t=P:problem=kreska pseudotaktowa	!
1GG	-ce
=81-	=81-
1r	.
*	*ij
0.F	Ec-
=82-	=82-
.	.
=83-	=83-
!LO:TX:t=P:problem=kreska pseudotaktowa	!
1BB-	-ce
*	*Xij
1.E-X	sic
=84-	=84-
2BB-/	be-
2E-/	-ne-
2BB-/	-di-
=85-	=85-
1F	-ce-
!LO:TX:t=P:problem=kreska pseudotaktowa	!
1C	-t(ur)
=86-	=86-
0G	ho-
=87-	=87-
!LO:TX:t=P:problem=kreska pseudotaktowa	!
1D	-mo!
00r	.
=88-	=88-
.	.
=89-	=89-
0r	.
=90-	=90-
!LO:TX:t=P:problem=kreska pseudotaktowa	!
1r	.
=91-	=91-
1BB-	qui
1C	ti-
=92-	=92-
!LO:TX:t=P:problem=kreska pseudotaktowa	!
1D	-met
!LO:TX:t=P:problem=kreska pseudotaktowa	!
0r	.
=93-	=93-
*	*ij
1F	qui
=94-	=94-
1G	ti-
!LO:TX:t=P:problem=kreska pseudotaktowa	!
1A	-met
*	*Xij
=95-	=95-
!LO:TX:t=P:problem=kreska pseudotaktowa	!
0rF	.
=96-	=96-
1BB-	qui
1C	ti-
=97-	=97-
*custos:G	*
!LO:TX:t=P:problem=kreska pseudotaktowa	!
1D	-met
!LO:LB:g=original	!
2.G\	Do-
4A\	.
=98-	=98-
2B-\	.
2E-X/	-mi-
*lig	*
1F	-num.
=99-	=99-
1BB-,<	.
*Xlig	*
1.B-	Be-
=100-	=100-
2B-\	-ne-
!LO:TX:t=P:problem=kreska pseudotaktowa	!
1B-	-di-
=101-	=101-
2BB-,</	-cat
2BB-/	Ti-
4BB-/	-bi
2BB-/	Do-
4BB-/	-mi-
=102-	=102-
2F,</	-n(us)
!LO:TX:t=P:problem=kreska pseudotaktowa	!
2C/	ex
2.G\	Si-
4F/	.
=103-	=103-
1E-X	.
2D,</	-on
!LO:TX:t=P:problem=kreska pseudotaktowa	!
2BB-/	et
=104-	=104-
2.F/	vi-
4C/	-de-
2F/	-as
1E-X/	bo-
=105-	=105-
!LO:TX:t=P:problem=kreska pseudotaktowa	!
2BB-/	-na
2BB-/	Je-
1F\	-ru-
=106-	=106-
2D/	-ſa-
!LO:TX:t=P:problem=kreska pseudotaktowa	!
0AA	-lem!
=107-	=107-
!LO:TX:t=P:problem=brak 1r	!
1ryy	.
=108-	=108-
00r	.
=109-	=109-
.	.
=110-	=110-
!LO:TX:t=P:problem=kreska pseudotaktowa	!
00r	.
=111-	=111-
.	.
=112-	=112-
1D	Et
2.G\	vi-
!LO:TX:t=P:problem=kreska pseudotaktowa	!
4D/	-de-
!LO:LB:g=original	!
=113-	=113-
2G\	-as
2.C/	Fi-
4BBn/	-li-
!LO:TX:t=P:problem=kreska pseudotaktowa	!
2C/	-os
=114-	=114-
2.F/	Fi-
4C/	-li-
2F/	-o-
1BB-y/	-rum
=115-	=115-
!LO:TX:t=P:problem=kreska pseudotaktowa	!
2F/	tu-
*lig	*
1C	-o-
=116-	=116-
1G	.
*Xlig	*
!LO:TX:t=P:problem=kreska pseudotaktowa	!
0D	-rum,
=117-	=117-
!LO:TX:t=P:problem=kreska pseudotaktowa	!
1r	.
=118-	=118-
0G	pa-
=119-	=119-
!LO:TX:t=P:problem=kreska pseudotaktowa	!
1C	-cem
0F	su-
=120-	=120-
!LO:TX:t=P:problem=kreska pseudotaktowa	!
1C	-per
=121-	=121-
1.D	Is-
2GG/	-ra-
=122-	=122-
!LO:TX:t=P:problem=kreska pseudotaktowa	!
0GG,<	-el.
=123-	=123-
1D	Et
2.G\	vi-
4D/	-de-
=124-	=124-
2G,<\	-as
2.C/	Fi-
4BBn/	-li-
!LO:TX:t=P:problem=kreska pseudotaktowa	!
2C/	-os
=125-	=125-
2.F/	Fi-
!LO:TX:t=P:problem=kreska pseudotaktowa	!
4C/	-li-
!LO:LB:g=original	!
2F/	-o-
1BB-y/	-rum
=126-	=126-
!LO:TX:t=P:problem=kreska pseudotaktowa	!
2F\	Tu-
*lig	*
1C	-o-
=127-	=127-
1G	.
*Xlig	*
!LO:TX:t=P:problem=kreska pseudotaktowa	!
0D	-rum
=128-	=128-
!LO:TX:t=P:problem=kreska pseudotaktowa	!
1r	.
=129-	=129-
0G	Pa-
=130-	=130-
!LO:TX:t=P:problem=kreska pseudotaktowa	!
1C	-cem
0F	su-
=131-	=131-
!LO:TX:t=P:problem=kreska pseudotaktowa	!
1C	-per
=132-	=132-
1.D	Is-
2D/	-rà-
=133-	=133-
!LO:TX:t=P:problem=końcowa kreska pseudotaktowa	!
0G;>	-él.
=-	=-
*-	*-
!!!RDF**kern: > = above
!!!RDF**kern: < = below
!!!EED: Antoni Szymański
!!!EST: 2021-07-29
!!!AIN: 1 empty
!!!ENC: Katarzyna Serwa
!!!END: 2021-07-03
!!!RDF**kern: | = vertical stroke
